X: 162
T: Mr Samuel Macknight's Favourite
C: by John Pringle
B: John Pringle "Collection of Reels Strathspeys & Jigs", 1801 p.16#2
Z: 2011 John Chambers <jc:trillian.mit.edu>
Q: "Very Slow"
R: jig, air
M: 6/8
L: 1/8
K: Bb
V: 1
d |\
BFd {f}ed~c | Bdf {f}ed~c | BFd Ged | ~cfe dBg |
fdB {a}bag | fdB gec | fdB eAc | dGA B2 :|
|: F |\
ABc dBG | Ceg FAc | dB~G ec~A | fg=e ~d2f |
(bBb) afd | geg fdB | ABc Bdf | {f}ed~c B2 :|
V: 2 clef=bass middle=d
z |\
BdB cfe | dBd f2e | d2B e2=e | f2^f g2d/b/ |
d/b/B/b/d/b/ g/b/f/b/e/b/ | d/c/B/c/d/B/ e/d/c/d/e/c/ |\
d/f/b/c'/d'/b/  e/c/f/g/a/f/ | b/d/e/c/f/F/ B/b/B :|
|: z |\
^f/d/g/d/a/d/ b/a/g/a/=b/g/ | zc/d/e/c/ f/=e/f/g/a/f/ |\
bg/a/=b/g/ c'a/_b/^c'/a/ | d'/a/b/g/a/A/ d/e/f/e/d/c/ |
B/A/B/c/d/e/ f/g/a/f/b/B/ | e/f/g/f/e/g/ bB/c/d/B/ |\
F/f/G/f/A/f/ B/A/B/c/d/B/ | e/d/f/=e/f/F/ B/b/B :|

%%sep 2 1 500

